X:9
T:Dew Pool
C:Chris Perry
S:The Fiddle Player's Tunebook 1
M:4/4
L:1/8
K:G
GF |\
"Em"E4 G3 A |\
"G"B4 d2 e2 |\
"Bm"d2 B2 cB A2 |\
"Bm"B6 G2 |\
"D"A3 G F2 G2 |\
"D"A6 GA |\
"Em"AB -B4 GE |\
"Bm"F4 G2 F2 |\
"Em"E4 G3 A |\
"G"B4 d2 e2 |\
"Bm"d2 B2 cB A2 |\
"Bm"B4 c2 d2 |\
"C"e4 d2 B2 |\
"D"c2 d2 A2 ef |\
"Em"g2 e2 "B"fe ^d2 |\
"A"[B6 e6] ||
